; generated by PrusaSlicer 2.4.2+win64 on 2022-07-18 at 00:32:29 UTC

; 

; external perimeters extrusion width = 0.60mm
; perimeters extrusion width = 0.50mm
; infill extrusion width = 0.50mm
; solid infill extrusion width = 0.50mm
; top infill extrusion width = 0.45mm
; first layer extrusion width = 0.42mm

M73 P0 R79
M73 Q0 S80
M201 X1000 Y1000 Z200 E5000 ; sets maximum accelerations, mm/sec^2
M203 X200 Y200 Z12 E120 ; sets maximum feedrates, mm / sec
M204 P1250 R1250 T1250 ; sets acceleration (P, T) and retract acceleration (R), mm/sec^2
M205 X8.00 Y8.00 Z0.40 E4.50 ; sets the jerk limits, mm/sec
M205 S0 T0 ; sets the minimum extruding and travel feed rate, mm/sec
M107
;TYPE:Custom
M862.3 P "MK3" ; printer model check
M862.1 P0.4 ; nozzle diameter check
M115 U3.10.1 ; tell printer latest fw version
G90 ; use absolute coordinates
M83 ; extruder relative mode
M104 S215 ; set extruder temp
M140 S60 ; set bed temp
M190 S60 ; wait for bed temp
M109 S215 ; wait for extruder temp
G28 W ; home all without mesh bed level
G80 ; mesh bed leveling
G1 Z0.2 F720
G1 Y-3 F1000 ; go outside print area
G92 E0
G1 X60 E9 F1000 ; intro line
G1 X100 E12.5 F1000 ; intro line
G92 E0
M221 S95

; Don't change E values below. Excessive value can damage the printer.

M907 E538 ; set extruder motor current
G21 ; set units to millimeters
G90 ; use absolute coordinates
M83 ; use relative distances for extrusion
M900 K0.05 ; Filament gcode LA 1.5
M900 K30 ; Filament gcode LA 1.0
M107
;LAYER_CHANGE
;Z:0.2
;HEIGHT:0.2
;BEFORE_LAYER_CHANGE
G92 E0.0
;0.2


G1 E-.8 F2100
G1 Z.4 F720
;AFTER_LAYER_CHANGE
;0.2
G1 X93.36 Y85.692 F10800
G1 Z.2 F720
G1 E.8 F2100
M204 S800
;TYPE:Skirt/Brim
;WIDTH:0.42
G1 F1200
G1 X98.476 Y80.692 E.2243
G1 X100.138 Y80.015 E.05625
G1 X149.862 Y80.015 E1.55908
G1 X151.524 Y80.692 E.05625
G1 X156.64 Y85.692 E.2243
G1 X157.355 Y87.392 E.05783
G1 X157.355 Y122.608 E1.10418
G1 X156.64 Y124.308 E.05783
G1 X151.524 Y129.308 E.2243
G1 X149.862 Y129.985 E.05625
G1 X100.138 Y129.985 E1.55908
G1 X98.476 Y129.308 E.05625
G1 X93.36 Y124.308 E.2243
G1 X92.645 Y122.608 E.05783
G1 X92.645 Y87.392 E1.10418
G1 X93.337 Y85.747 E.05595
M204 S1000
; printing object my-mount4.STL id:0 copy 0
;WIPE_START
G1 F8640
G1 X95.683 Y83.439 E-.76
;WIPE_END
G1 E-.04 F2100
G1 Z.6 F720
G1 X95.809 Y87.723 F10800
G1 Z.2 F720
G1 E.8 F2100
M204 S800
;TYPE:Perimeter
M73 Q0 S79
G1 F1200
G1 X100.458 Y83.179 E.20385
G1 X149.542 Y83.179 E1.53897
G1 X154.191 Y87.723 E.20385
G1 X154.191 Y122.277 E1.0834
G1 X149.542 Y126.821 E.20385
G1 X100.458 Y126.821 E1.53897
G1 X95.809 Y122.277 E.20385
G1 X95.809 Y87.783 E1.08152
M204 S1000
G1 X95.432 Y87.564 F10800
M204 S800
;TYPE:External perimeter
G1 F1200
G1 X100.305 Y82.802 E.21365
G1 X149.695 Y82.802 E1.5486
G1 X154.568 Y87.564 E.21365
G1 X154.568 Y122.436 E1.09336
G1 X149.695 Y127.198 E.21365
G1 X100.305 Y127.198 E1.5486
G1 X95.432 Y122.436 E.21365
G1 X95.432 Y87.624 E1.09148
M204 S1000
G1 X95.831 Y87.551 F10800
;WIPE_START
G1 F8640
G1 X97.771 Y85.309 E-.76
;WIPE_END
G1 E-.04 F2100
G1 Z.6 F720
G1 X154.078 Y88.548 F10800
G1 Z.2 F720
G1 E.8 F2100
M204 S800
;TYPE:Solid infill
;WIDTH:0.421684
G1 F1200
G1 X148.992 Y83.462 E.22652
G1 X148.457 Y83.462 E.01687
G1 X153.908 Y88.914 E.24282
G1 X153.908 Y89.449 E.01687
G1 X147.921 Y83.462 E.26668
G1 X147.385 Y83.462 E.01687
G1 X153.908 Y89.985 E.29054
G1 X153.908 Y90.521 E.01687
G1 X146.85 Y83.462 E.31439
G1 X146.314 Y83.462 E.01687
G1 X153.908 Y91.056 E.33825
G1 X153.908 Y91.592 E.01687
G1 X145.778 Y83.462 E.36211
G1 X145.243 Y83.462 E.01687
G1 X153.908 Y92.127 E.38597
G1 X153.908 Y92.663 E.01687
G1 X144.707 Y83.462 E.40983
G1 X144.171 Y83.462 E.01687
G1 X153.908 Y93.199 E.43368
G1 X153.908 Y93.734 E.01687
G1 X143.636 Y83.462 E.45754
G1 X143.1 Y83.462 E.01687
G1 X153.908 Y94.27 E.4814
G1 X153.908 Y94.806 E.01687
G1 X142.564 Y83.462 E.50526
G1 X142.029 Y83.462 E.01687
G1 X153.908 Y95.341 E.52912
G1 X153.908 Y95.877 E.01687
G1 X141.493 Y83.462 E.55297
G1 X140.958 Y83.462 E.01687
M73 P1 R79
M73 Q1 S79
G1 X153.908 Y96.413 E.57683
G1 X153.908 Y96.948 E.01687
G1 X140.422 Y83.462 E.60069
G1 X139.886 Y83.462 E.01687
G1 X153.908 Y97.484 E.62455
G1 X153.908 Y98.02 E.01687
G1 X139.351 Y83.462 E.6484
G1 X138.815 Y83.462 E.01687
G1 X153.908 Y98.555 E.67226
G1 X153.908 Y99.091 E.01687
G1 X138.279 Y83.462 E.69612
G1 X137.744 Y83.462 E.01687
G1 X153.908 Y99.627 E.71998
G1 X153.908 Y100.162 E.01687
G1 X137.208 Y83.462 E.74384
G1 X136.672 Y83.462 E.01687
G1 X153.908 Y100.698 E.76769
G1 X153.908 Y101.234 E.01687
M73 P1 R78
G1 X136.137 Y83.462 E.79155
G1 X135.601 Y83.462 E.01687
G1 X153.908 Y101.769 E.81541
G1 X153.908 Y102.305 E.01687
G1 X135.065 Y83.462 E.83927
G1 X134.53 Y83.462 E.01687
G1 X153.908 Y102.841 E.86313
G1 X153.908 Y103.376 E.01687
G1 X133.994 Y83.462 E.88698
G1 X133.458 Y83.462 E.01687
G1 X153.908 Y103.912 E.91084
G1 X153.908 Y104.447 E.01687
G1 X132.923 Y83.462 E.9347
G1 X132.387 Y83.462 E.01687
G1 X153.908 Y104.983 E.95856
G1 X153.908 Y105.519 E.01687
G1 X131.851 Y83.462 E.98241
G1 X131.316 Y83.462 E.01687
G1 X153.908 Y106.054 E1.00627
G1 X153.908 Y106.59 E.01687
G1 X130.78 Y83.462 E1.03013
G1 X130.244 Y83.462 E.01687
G1 X153.908 Y107.126 E1.05399
G1 X153.908 Y107.661 E.01687
G1 X129.709 Y83.462 E1.07785
G1 X129.173 Y83.462 E.01687
M73 Q1 S78
G1 X153.908 Y108.197 E1.1017
G1 X153.908 Y108.733 E.01687
G1 X128.638 Y83.462 E1.12556
G1 X128.102 Y83.462 E.01687
G1 X153.908 Y109.268 E1.14942
G1 X153.908 Y109.804 E.01687
G1 X127.566 Y83.462 E1.17328
G1 X127.031 Y83.462 E.01687
G1 X153.908 Y110.34 E1.19714
G1 X153.908 Y110.875 E.01687
G1 X126.495 Y83.462 E1.22099
G1 X125.959 Y83.462 E.01687
G1 X153.908 Y111.411 E1.24485
G1 X153.908 Y111.947 E.01687
G1 X125.424 Y83.462 E1.26871
G1 X124.888 Y83.462 E.01687
G1 X153.908 Y112.482 E1.29257
G1 X153.908 Y113.018 E.01687
G1 X124.352 Y83.462 E1.31642
G1 X123.817 Y83.462 E.01687
M73 P2 R78
M73 Q2 S78
G1 X153.908 Y113.554 E1.34028
G1 X153.908 Y114.089 E.01687
G1 X123.281 Y83.462 E1.36414
G1 X122.745 Y83.462 E.01687
G1 X153.908 Y114.625 E1.388
G1 X153.908 Y115.161 E.01687
G1 X122.21 Y83.462 E1.41186
G1 X121.674 Y83.462 E.01687
G1 X153.908 Y115.696 E1.43571
G1 X153.908 Y116.232 E.01687
G1 X121.138 Y83.462 E1.45957
G1 X120.603 Y83.462 E.01687
G1 X153.908 Y116.768 E1.48343
G1 X153.908 Y117.303 E.01687
G1 X120.067 Y83.462 E1.50729
G1 X119.531 Y83.462 E.01687
G1 X153.908 Y117.839 E1.53115
G1 X153.908 Y118.374 E.01687
M73 P2 R77
G1 X118.996 Y83.462 E1.555
G1 X118.46 Y83.462 E.01687
G1 X153.908 Y118.91 E1.57886
G1 X153.908 Y119.446 E.01687
G1 X117.924 Y83.462 E1.60272
G1 X117.389 Y83.462 E.01687
G1 X153.908 Y119.981 E1.62658
G1 X153.908 Y120.517 E.01687
G1 X116.853 Y83.462 E1.65043
G1 X116.317 Y83.462 E.01687
G1 X153.908 Y121.053 E1.67429
G1 X153.908 Y121.588 E.01687
G1 X115.782 Y83.462 E1.69815
G1 X115.246 Y83.462 E.01687
G1 X153.908 Y122.124 E1.72201
G1 X153.908 Y122.158 E.00106
M73 Q2 S77
G1 X153.655 Y122.406 E.01118
G1 X114.711 Y83.462 E1.73456
G1 X114.175 Y83.462 E.01687
G1 X153.384 Y122.671 E1.74635
G1 X153.113 Y122.935 E.01193
M73 P3 R77
M73 Q3 S77
G1 X113.639 Y83.462 E1.75814
G1 X113.104 Y83.462 E.01687
G1 X152.842 Y123.2 E1.76994
G1 X152.571 Y123.465 E.01193
G1 X112.568 Y83.462 E1.78173
G1 X112.032 Y83.462 E.01687
G1 X152.3 Y123.73 E1.79352
G1 X152.029 Y123.994 E.01193
G1 X111.497 Y83.462 E1.80531
G1 X110.961 Y83.462 E.01687
G1 X151.758 Y124.259 E1.8171
G1 X151.487 Y124.524 E.01193
G1 X110.425 Y83.462 E1.8289
G1 X109.89 Y83.462 E.01687
G1 X151.217 Y124.789 E1.84069
G1 X150.946 Y125.053 E.01193
G1 X109.354 Y83.462 E1.85248
G1 X108.818 Y83.462 E.01687
G1 X150.675 Y125.318 E1.86427
G1 X150.404 Y125.583 E.01193
G1 X108.283 Y83.462 E1.87607
G1 X107.747 Y83.462 E.01687
M73 P3 R76
G1 X150.133 Y125.848 E1.88786
G1 X149.862 Y126.112 E.01193
G1 X107.211 Y83.462 E1.89965
G1 X106.676 Y83.462 E.01687
G1 X149.591 Y126.377 E1.91144
G1 X149.426 Y126.538 E.00726
G1 X149.217 Y126.538 E.00661
G1 X106.14 Y83.462 E1.91862
G1 X105.604 Y83.462 E.01687
G1 X148.681 Y126.538 E1.91862
G1 X148.145 Y126.538 E.01687
M73 P4 R76
M73 Q4 S77
G1 X105.069 Y83.462 E1.91862
G1 X104.533 Y83.462 E.01687
G1 X147.61 Y126.538 E1.91862
G1 X147.074 Y126.538 E.01687
M73 Q4 S76
G1 X103.997 Y83.462 E1.91862
G1 X103.462 Y83.462 E.01687
G1 X146.538 Y126.538 E1.91862
G1 X146.003 Y126.538 E.01687
G1 X102.926 Y83.462 E1.91862
G1 X102.39 Y83.462 E.01687
G1 X145.467 Y126.538 E1.91862
G1 X144.931 Y126.538 E.01687
G1 X101.855 Y83.462 E1.91862
G1 X101.319 Y83.462 E.01687
G1 X144.396 Y126.538 E1.91862
G1 X143.86 Y126.538 E.01687
G1 X100.784 Y83.462 E1.91862
G1 X100.574 Y83.462 E.00661
G1 X100.409 Y83.623 E.00726
G1 X143.324 Y126.538 E1.91144
G1 X142.789 Y126.538 E.01687
G1 X100.138 Y83.888 E1.89965
G1 X99.867 Y84.152 E.01193
G1 X142.253 Y126.538 E1.88786
G1 X141.717 Y126.538 E.01687
G1 X99.596 Y84.417 E1.87607
G1 X99.325 Y84.682 E.01193
G1 X141.182 Y126.538 E1.86427
G1 X140.646 Y126.538 E.01687
G1 X99.054 Y84.947 E1.85248
G1 X98.784 Y85.211 E.01193
M73 P4 R75
G1 X140.11 Y126.538 E1.84069
G1 X139.575 Y126.538 E.01687
M73 P5 R75
M73 Q5 S76
G1 X98.513 Y85.476 E1.8289
G1 X98.242 Y85.741 E.01193
G1 X139.039 Y126.538 E1.81711
G1 X138.503 Y126.538 E.01687
G1 X97.971 Y86.006 E1.80531
G1 X97.7 Y86.27 E.01193
G1 X137.968 Y126.538 E1.79352
G1 X137.432 Y126.538 E.01687
G1 X97.429 Y86.535 E1.78173
G1 X97.158 Y86.8 E.01193
G1 X136.897 Y126.538 E1.76994
G1 X136.361 Y126.538 E.01687
M73 Q5 S75
G1 X96.887 Y87.065 E1.75815
G1 X96.616 Y87.329 E.01193
G1 X135.825 Y126.538 E1.74635
G1 X135.29 Y126.538 E.01687
G1 X96.345 Y87.594 E1.73456
G1 X96.092 Y87.842 E.01118
G1 X96.092 Y87.876 E.00106
G1 X134.754 Y126.538 E1.72201
G1 X134.218 Y126.538 E.01687
G1 X96.092 Y88.412 E1.69815
G1 X96.092 Y88.947 E.01687
G1 X133.683 Y126.538 E1.6743
G1 X133.147 Y126.538 E.01687
G1 X96.092 Y89.483 E1.65044
G1 X96.092 Y90.018 E.01687
G1 X132.611 Y126.538 E1.62658
G1 X132.076 Y126.538 E.01687
G1 X96.092 Y90.554 E1.60272
G1 X96.092 Y91.09 E.01687
G1 X131.54 Y126.538 E1.57886
G1 X131.004 Y126.538 E.01687
G1 X96.092 Y91.625 E1.55501
G1 X96.092 Y92.161 E.01687
M73 P6 R75
G1 X130.469 Y126.538 E1.53115
G1 X129.933 Y126.538 E.01687
M73 Q6 S75
G1 X96.092 Y92.697 E1.50729
G1 X96.092 Y93.232 E.01687
G1 X129.397 Y126.538 E1.48343
G1 X128.862 Y126.538 E.01687
G1 X96.092 Y93.768 E1.45958
G1 X96.092 Y94.304 E.01687
M73 P6 R74
G1 X128.326 Y126.538 E1.43572
G1 X127.79 Y126.538 E.01687
G1 X96.092 Y94.839 E1.41186
G1 X96.092 Y95.375 E.01687
G1 X127.255 Y126.538 E1.388
G1 X126.719 Y126.538 E.01687
G1 X96.092 Y95.911 E1.36414
G1 X96.092 Y96.446 E.01687
G1 X126.183 Y126.538 E1.34029
G1 X125.648 Y126.538 E.01687
G1 X96.092 Y96.982 E1.31643
G1 X96.092 Y97.518 E.01687
G1 X125.112 Y126.538 E1.29257
G1 X124.577 Y126.538 E.01687
G1 X96.092 Y98.053 E1.26871
G1 X96.092 Y98.589 E.01687
G1 X124.041 Y126.538 E1.24485
G1 X123.505 Y126.538 E.01687
G1 X96.092 Y99.125 E1.221
G1 X96.092 Y99.66 E.01687
M73 Q6 S74
G1 X122.97 Y126.538 E1.19714
G1 X122.434 Y126.538 E.01687
G1 X96.092 Y100.196 E1.17328
G1 X96.092 Y100.732 E.01687
G1 X121.898 Y126.538 E1.14942
G1 X121.363 Y126.538 E.01687
G1 X96.092 Y101.267 E1.12557
G1 X96.092 Y101.803 E.01687
G1 X120.827 Y126.538 E1.10171
G1 X120.291 Y126.538 E.01687
G1 X96.092 Y102.339 E1.07785
G1 X96.092 Y102.874 E.01687
G1 X119.756 Y126.538 E1.05399
G1 X119.22 Y126.538 E.01687
G1 X96.092 Y103.41 E1.03013
G1 X96.092 Y103.945 E.01687
G1 X118.684 Y126.538 E1.00628
G1 X118.149 Y126.538 E.01687
G1 X96.092 Y104.481 E.98242
M73 P7 R74
G1 X96.092 Y105.017 E.01687
M73 Q7 S74
G1 X117.613 Y126.538 E.95856
G1 X117.077 Y126.538 E.01687
G1 X96.092 Y105.552 E.9347
G1 X96.092 Y106.088 E.01687
G1 X116.542 Y126.538 E.91084
G1 X116.006 Y126.538 E.01687
G1 X96.092 Y106.624 E.88699
G1 X96.092 Y107.159 E.01687
G1 X115.47 Y126.538 E.86313
G1 X114.935 Y126.538 E.01687
G1 X96.092 Y107.695 E.83927
G1 X96.092 Y108.231 E.01687
G1 X114.399 Y126.538 E.81541
G1 X113.863 Y126.538 E.01687
G1 X96.092 Y108.766 E.79156
G1 X96.092 Y109.302 E.01687
G1 X113.328 Y126.538 E.7677
G1 X112.792 Y126.538 E.01687
G1 X96.092 Y109.838 E.74384
G1 X96.092 Y110.373 E.01687
G1 X112.256 Y126.538 E.71998
G1 X111.721 Y126.538 E.01687
G1 X96.092 Y110.909 E.69612
G1 X96.092 Y111.445 E.01687
G1 X111.185 Y126.538 E.67227
G1 X110.65 Y126.538 E.01687
G1 X96.092 Y111.98 E.64841
G1 X96.092 Y112.516 E.01687
G1 X110.114 Y126.538 E.62455
G1 X109.578 Y126.538 E.01687
G1 X96.092 Y113.052 E.60069
G1 X96.092 Y113.587 E.01687
M73 P7 R73
G1 X109.043 Y126.538 E.57684
G1 X108.507 Y126.538 E.01687
G1 X96.092 Y114.123 E.55298
G1 X96.092 Y114.659 E.01687
G1 X107.971 Y126.538 E.52912
G1 X107.436 Y126.538 E.01687
G1 X96.092 Y115.194 E.50526
G1 X96.092 Y115.73 E.01687
G1 X106.9 Y126.538 E.4814
G1 X106.364 Y126.538 E.01687
G1 X96.092 Y116.265 E.45755
G1 X96.092 Y116.801 E.01687
G1 X105.829 Y126.538 E.43369
G1 X105.293 Y126.538 E.01687
G1 X96.092 Y117.337 E.40983
G1 X96.092 Y117.872 E.01687
G1 X104.757 Y126.538 E.38597
G1 X104.222 Y126.538 E.01687
G1 X96.092 Y118.408 E.36211
G1 X96.092 Y118.944 E.01687
G1 X103.686 Y126.538 E.33826
G1 X103.15 Y126.538 E.01687
G1 X96.092 Y119.479 E.3144
G1 X96.092 Y120.015 E.01687
G1 X102.615 Y126.538 E.29054
G1 X102.079 Y126.538 E.01687
G1 X96.092 Y120.551 E.26668
G1 X96.092 Y121.086 E.01687
G1 X101.543 Y126.538 E.24282
G1 X101.008 Y126.538 E.01687
G1 X96.092 Y121.622 E.21897
G1 X96.092 Y122.158 E.01687
G1 X100.642 Y126.708 E.20267
M204 S1000
; stop printing object my-mount4.STL id:0 copy 0
M106 S84.15
;LAYER_CHANGE
;Z:0.5
;HEIGHT:0.3
;BEFORE_LAYER_CHANGE
G92 E0.0
;0.5


;WIPE_START
G1 F8640
G1 X98.314 Y124.381 E-.76
;WIPE_END
G1 E-.04 F2100
G1 Z.6 F720
;AFTER_LAYER_CHANGE
;0.5
G1 X95.93 Y126.82 F10800
G1 Z.5 F720
G1 E.8 F2100
;TYPE:Skirt/Brim
;WIDTH:0.42
G1 F2700
G1 X93.36 Y124.308 E.1594
G1 X92.645 Y122.608 E.08181
G1 X92.645 Y87.392 E1.56201
G1 X93.36 Y85.692 E.08181
G1 X98.476 Y80.692 E.3173
G1 X100.138 Y80.015 E.07958
G1 X149.862 Y80.015 E2.20553
G1 X151.524 Y80.692 E.07958
G1 X156.64 Y85.692 E.3173
G1 X157.355 Y87.392 E.08181
G1 X157.355 Y122.608 E1.56201
G1 X156.64 Y124.308 E.08181
G1 X151.524 Y129.308 E.3173
G1 X149.862 Y129.985 E.07958
G1 X100.138 Y129.985 E2.20553
G1 X98.476 Y129.308 E.07958
G1 X95.973 Y126.862 E.15524
; printing object my-mount4.STL id:0 copy 0
;WIPE_START
G1 F8640
G1 X93.619 Y124.561 E-.76
;WIPE_END
G1 E-.04 F2100
G1 Z.9 F720
G1 X95.861 Y122.277 F10800
G1 Z.5 F720
G1 E.8 F2100
M204 S800
;TYPE:Perimeter
;WIDTH:0.5
G1 F3000
G1 X95.861 Y87.723 E1.87746
G1 X100.512 Y83.178 E.35331
G1 X149.488 Y83.178 E2.66101
G1 X154.139 Y87.723 E.35331
G1 X154.139 Y122.277 E1.87746
G1 X149.488 Y126.822 E.35331
G1 X100.512 Y126.822 E2.66101
G1 X95.904 Y122.319 E.35005
M204 S1000
M73 Q7 S73
G1 X95.376 Y122.482 F10800
M204 S800
;TYPE:External perimeter
;WIDTH:0.6
G1 F2100
G1 X95.376 Y87.518 E2.33576
G1 X100.314 Y82.692 E.46129
G1 X149.686 Y82.692 E3.2983
G1 X154.624 Y87.518 E.46129
G1 X154.624 Y122.482 E2.33576
G1 X149.686 Y127.308 E.46129
G1 X100.314 Y127.308 E3.2983
G1 X95.419 Y122.524 E.45729
M204 S1000
M73 P8 R73
G1 X95.586 Y122.141 F10800
;WIPE_START
G1 F8640
G1 X95.415 Y119.232 E-.76
;WIPE_END
G1 E-.04 F2100
G1 Z.9 F720
G1 X154.008 Y121.328 F10800
G1 Z.5 F720
M73 Q8 S73
G1 E.8 F2100
;TYPE:Solid infill
;WIDTH:0.500535
G1 F4800
G1 X148.84 Y126.496 E.39757
G1 X148.223 Y126.496 E.03355
G1 X153.812 Y120.907 E.42994
G1 X153.812 Y120.29 E.03355
G1 X147.607 Y126.496 E.47739
G1 X146.99 Y126.496 E.03355
G1 X153.812 Y119.674 E.52485
G1 X153.812 Y119.057 E.03355
G1 X146.373 Y126.496 E.5723
G1 X145.756 Y126.496 E.03355
G1 X153.812 Y118.44 E.61975
G1 X153.812 Y117.823 E.03355
G1 X145.139 Y126.496 E.6672
G1 X144.522 Y126.496 E.03355
G1 X153.812 Y117.206 E.71466
G1 X153.812 Y116.59 E.03355
G1 X143.906 Y126.496 E.76211
G1 X143.289 Y126.496 E.03355
G1 X153.812 Y115.973 E.80956
G1 X153.812 Y115.356 E.03355
G1 X142.672 Y126.496 E.85702
G1 X142.055 Y126.496 E.03355
G1 X153.812 Y114.739 E.90447
G1 X153.812 Y114.122 E.03355
G1 X141.438 Y126.496 E.95192
G1 X140.822 Y126.496 E.03355
G1 X153.812 Y113.505 E.99938
G1 X153.812 Y112.889 E.03355
G1 X140.205 Y126.496 E1.04683
G1 X139.588 Y126.496 E.03355
